X:1
T:Life of Christ
T:Life of Christ
T:John Marchant Whyte
T:Jessie H. Baker, 1890
T:Public Domain Courtesy of the Cyber Hymnal™
T:Public Domain Courtesy of the Cyber Hymnal™
C:John Marchant Whyte
Z:Public Domain
Z:Courtesy of the Cyber Hymnal™
%%score ( 1 2 ) ( 3 4 )
L:1/8
Q:1/4=97
M:4/4
K:G
V:1 treble 
V:2 treble 
V:3 bass 
V:4 bass 
V:1
 [B,D]>[DG] | [GB]3 [FA] [Fc]>[DF] | [DA]2 [DG]2 [B,D]>[B,D] | ([CE]2 [Ec]2) [DF]2 | %4
w: 1.~From a|pal- ace to a|man- ger, Once the|Sav- * ior|
w: 2.~On the|cross, His arms ex-|tend- ed, There my|Sav- * ior|
w: 3.~Wide are|flung the gates of|bright- ness, List the|heav’n- * ly|
 (A2 G2) [B,D]>[DG] | [GB]3 [DG] [FA]>[=FB] | [Ec]2 [CE]2 [CF]>[CE] | ([B,D]2 [DG]2) (FA) | %8
w: came; * Poor, des-|pised, and called a|stran- ger; This, my|Sav- * ior’s *|
w: dies; * In a|grave— His life- work|end- ed, There my|Sav- * ior *|
w: strains! * On a|throne of dazz- ling|white- ness, Now my|Sav- * ior *|
 [DG]4 [FA]>[FA] | [FA]3 [DF] [DG]>[DB] | [DA]2 [DF]2 [Fd][Fd] | [G^c]4 [Ad]2 | [FA]4 [FA]>[F^A] | %13
w: fame. Down in|path- ways dark and|drear- y, Still my|Sav- ior|goes, Cheer- ing|
w: lies; From the|tomb, death’s fet- ters|rend- ing, See my|Sav- ior|rise, Back to|
w: reigns; And to|see Him in His|beau- ty On the|hills of|God, I must|
 [GB]3 G [Gd]>[GB] | [FA]2 [DF]2 D>[DE] | (F2 G2) [^CE]2 | !fermata!D4 ||[M:4/4]"^Refrain" [Bd]2 | %18
w: hearts grown faint and|wea- ry, Bear- ing|oth- * er’s|woes.||
w: Heav’n, to home as-|cend- ing, Lo! He|mounts * the|skies.|My|
w: tread the path of|du- ty, That my|Sav- * ior|trod.||
 [Bd]3 [GB] [Ac]2 [FA]2 | [GB]2 [Ac]2 [GB]2 [Bd]2 | [Bd]3 [GB] [Ac]2 [FA]2 | %21
w: |||
w: Lord was cru- ci-|fied for me, Up-|on the cross He|
w: |||
 [GB]2 [DA]2 [DG]>D [DG]>[FA] | [GB]2 [GB]4 [=Fd]2 | [Ec]2 [Ec]4 [EA]2 | [DG]2 [GB]2 [GB]2 [FA]2 | %25
w: ||||
w: died for me, And I will|love Thee, my|Sav- ior; For|Thou hast first loved|
w: ||||
 [DG]6 |] %26
w: |
w: me.|
w: |
V:2
 x2 | x6 | x6 | x6 | D4 x2 | x6 | x6 | x4 D2 | x6 | x6 | x6 | x6 | x6 | x3 G x2 | x4 D3/2 x/ | %15
 D4 x2 | D4 ||[M:4/4] x2 | x8 | x8 | x8 | x11/2 D/ x2 | x8 | x8 | x8 | x6 |] %26
V:3
 G,>[G,B,] | [G,D]3 [D,D] [D,A,]>[D,A,] | [D,C]2 [G,B,]2 [G,,G,]>[G,,G,] | [C,G,]4 [D,C]2 | %4
 [D,C]2 [G,B,]2 G,>[G,B,] | [G,D]3 [G,B,] [D,C]>[G,B,] | [C,G,]2 [C,G,]2 [C,G,]>[C,G,] | %7
 (G,2 B,2) (A,C) | [G,,B,]4 [D,D]>[D,D] | [D,D]3 [D,A,] [D,B,]>[D,G,] | %10
 [D,F,]2 [D,A,]2 [D,A,][D,A,] | [E,A,]4 [F,A,]2 | [D,D]4 [D,D]>[D,D] | [G,D]3 [G,B,] [G,B,]>[G,D] | %14
 [D,D]2 [D,A,]2 [D,F,]>[D,G,] | ([D,A,]2 [G,,B,]2) [A,,G,]2 | !fermata![D,F,]4 ||[M:4/4] z2 | z8 | %19
 z2 [D,D]2 [G,D]2 z2 | z8 | z2 [D,C]2 [G,,B,]>[G,,B,] [B,,D]>[D,D] | [G,D]2 [G,D]4 [B,,G,]2 | %23
 [C,G,]2 [C,G,]4 [C,C]2 | [D,B,]2 [D,D]2 [D,D]2 [D,C]2 | [G,,G,B,]6 |] %26
V:4
 G,3/2 x/ | x6 | x6 | x6 | x4 G,3/2 x/ | x6 | x6 | D,4 D,2 | x6 | x6 | x6 | x6 | x6 | x6 | x6 | %15
 x6 | x4 ||[M:4/4] x2 | x8 | x8 | x8 | x8 | x8 | x8 | x8 | x6 |] %26

